X: 021830
T: Badger's Fancy [The]
S: B.Breathnach:"Ceol Rince na hEireann" IV/218 (gan ainm)
Z: B.Black
L: 1/8
M: 4/4
R: hornpipe
K: G
D|GABc dggf|feed e2 AG|FGAB cedc|BGAF GFED|
GABc dggf|feed e2 AG|FGAB cedc|BGAF G4 ||
d2 Bd gdBd|gfgf gdBd|gfed cBAG|Ad^ce d2 ef|
gdBd GBdg|ecAF GFED|GBdg ecAf G2 GG G4 ||
